!!!!SEGMENT: pl-sa--29-a-i-29--007_konigsperger-marianus-vesperae-ex-d-magnificat.krn
!!!id: 17xx:544
!!!COM: Königsperger, Marianus
!!!OTL: Vesperae ex D – Magnificat
!!!PDT:
!!!SMS-siglum: PL-SA
!!!SMS-shelfmark: 29/A I 29
!!!NIFC-rismID: 1001068253
!!!URL-scan: http://bc.bdsandomierz.pl/dlibra/publication/1262/edition/1230/content
!!!ONB-nifc: UWAGA: części Vesperae: Domine ad adjuvandum, Dixit Dominus, Laudate pueri, Laetatus sum, Nisi Dominus, Lauda Jerusalem, Magnificat
!!!SMS-variant:
!!!SMS-altvar:
**kern	**fba	**kern	**dynam	**kern	**dynam	**kern	**text	**kern	**text	**kern	**kern
*part7	*	*part6	*part6	*part5	*part5	*part4	*part4	*part3	*part3	*part2	*part1
*staff7	*	*staff6	*	*staff5	*	*staff4	*staff4	*staff3	*staff3	*staff2	*staff1
*I"Organo	*	*I"Violino Secundo	*	*I"Violino Primo	*	*I"Baſso	*	*I"Canto	*	*I"Clarino 2do ex D.	*I"Clarino 1mo ex D.
*I'Org.	*	*I'Vn II	*	*I'Vn I	*	*I'B.	*	*I'C.	*	*I'Clarino II	*I'Clarino I
*clefF4	*	*clefG2	*	*clefG2	*	*clefF4	*	*clefC1	*	*clefG2	*clefG2
*	*	*	*	*	*	*	*	*	*	*ITrd-1c-2	*ITrd6c10
*k[f#c#]	*	*k[f#c#]	*	*k[f#c#]	*	*k[f#c#]	*	*k[c#f#]	*	*k[f#c#]	*k[f#c#]
*M2/4	*	*M2/4	*	*M2/4	*	*M2/4	*	*M2/4	*	*M2/4	*M2/4
=1	=1	=1	=1	=1	=1	=1	=1	=1	=1	=1	=1
*	*	*	*	*	*below	*	*	*	*	*	*
!LO:TX:rj:b:i:t=Magnificat	!	!	!	!	!	!	!	!	!	!	!
!LO:TX:rj:a:i:t=Grave	!	!	!	!LO:TX:b:i:t=Magnificat	!	!	!	!	!	!	!
4r	.	4r	.	4r	.	4r	.	4r	.	4r	4r
!	!	!	!	!	!	!	!	!	!	!LO:TX:b:i:t=Magnificat	!LO:TX:b:i:t=Magnificat
!	!	!LO:TX:a:i:t=Grave	!	!LO:TX:a:i:t=Grave	!	!	!	!LO:TX:a:i:t=Allegro	!	!LO:TX:a:i:t=Grave	!LO:TX:a:i:t=Grave
4d\	.	4a/	.	4ff#\	.	4d\	Ma-	4ff#\	Ma-	4dd\	4f#\
=2	=2	=2	=2	=2	=2	=2	=2	=2	=2	=2	=2
4A\	.	4cc#\	.	4ee\	.	4A\	-gni-	4ff#\	-gni-	4ee\	4e\
4D\	.	4a\	.	4ff#\	.	4D\	-fi-	4ff#\	-fi-	4dd\	4f#\
=3	=3	=3	=3	=3	=3	=3	=3	=3	=3	=3	=3
4A\	.	4cc#\	.	4ee\	.	4A\	-cat	4ee\	-cat	4a/	4e\
4A\	.	4a\	.	4cc#\	.	[4A\	a-	(4cc#\	a-	4r	4r
=4	=4	=4	=4	=4	=4	=4	=4	=4	=4	=4	=4
*	*	*2\right	*	*	*	*	*	*	*	*	*
4A\	4 2	2b\	.	4dd\	.	4A\]	.	4dd\)	.	4r	4r
4G\	6	.	.	(8ee\L	.	8G\	-ni-	8ee\	-ni-	8ee\L	8g\L
.	5	.	.	8dd\J)	.	8G\	-ma	8dd\	-ma	8dd\J	8f#\J
=5	=5	=5	=5	=5	=5	=5	=5	=5	=5	=5	=5
4G\	4 2	8a\L	.	8cc#\L	.	4G\	me-	4cc#\	me-	4a/	4e\
.	.	8cc#\J	.	8ee\J	.	.	.	.	.	.	.
8F#\L	6	[4dd\	.	4ff#\	.	(8F#\L	-a-	4dd\	-a	4dd\	4f#\
8G\J	.	.	.	.	.	8G\J)	.	.	.	.	.
=6	=6	=6	=6	=6	=6	=6	=6	=6	=6	=6	=6
4.A\	5 4	8dd\L]	.	4.eeT\	.	4.A\	-Do-	4.dd\	Do-	4.a/	4.eT\
.	.	16cc#\L	.	.	.	.	.	.	.	.	.
.	x 3	16b\JJ	.	.	.	.	.	.	.	.	.
.	.	4cc#\	.	.	.	.	.	.	.	.	.
8AA/	.	.	.	8ee\	.	8AA/	-mi-	8cc#\	-mi-	8a/	8e\
=7	=7	=7	=7	=7	=7	=7	=7	=7	=7	=7	=7
!	!	!	!	!	!	!	!	!	!	!LO:TX:a:t=P:mixed beam:problem	!
!LO:TX:a:i:t=Allegro	!	!LO:TX:a:i:t=Allegro	!	!LO:TX:b:i:t=allegro	!	!	!	!	!	!LO:TX:a:i:t=Allegro.	!LO:TX:a:i:t=Allegro
8D\L	.	16dd\LL	.	16dd\LL	.	8D/	-n(um)	8dd\	-n(um)	8f#/L	8d\L
.	.	16ff#\	.	16bb\	.	.	.	.	.	.	.
!	!	!	!	!	!	!LO:TX:b:t=Allo	!	!	!	!	!
8d\	.	16ff#\	.	16bb\	.	8d\	et	8ff#\	Et	8dd\	8f#\
.	.	16ff#\JJ	.	16bb\JJ	.	.	.	.	.	.	.
8d\	.	16ff#\LL	.	16bb\LL	.	8d\	e-	8ff#\	e-	8dd\	8f#\
.	.	16ff#\	.	16bb\	.	.	.	.	.	.	.
8d\J	.	16ff#\	.	16bb\	.	8d\	-xul-	8ff#\	-xul-	8dd\J	8f#\J
.	.	16ff#\JJ	.	16bb\JJ	.	.	.	.	.	.	.
=8	=8	=8	=8	=8	=8	=8	=8	=8	=8	=8	=8
8A\L	.	16cc#\LL	.	16ee\LL	.	8A\	-ta-	8ee\	-ta-	8a/L	8e\L
.	.	16ee\	.	16ccc#\	.	.	.	.	.	.	.
8A\	.	16ee\	.	16ccc#\	.	8A\	-vit	8ee\	-vit	8a/	8e\
.	.	16ee\JJ	.	16ccc#\JJ	.	.	.	.	.	.	.
8A\	.	16ee\LL	.	16ccc#\LL	.	8A\	Spi-	8ee\	Spi-	8a/	8e\
.	.	16ee\	.	16ccc#\	.	.	.	.	.	.	.
8A\J	.	16ee\	.	16ccc#\	.	16A\	-ri-	16ee\	-ri-	8a/J	8e\J
.	.	16ee\JJ	.	16ccc#\JJ	.	16A\	-tus	16ee\	-tus	.	.
!	!	!LO:LB:g=original	!	!	!	!	!	!	!	!	!
=9	=9	=9	=9	=9	=9	=9	=9	=9	=9	=9	=9
8F#\L	6	16ff#\LL	.	16ddd\LL	.	8D\	me-	8dd\	me-	8f#/L	8d\L
.	.	16aa\	.	16ddd\	.	.	.	.	.	.	.
8D\J	.	16ff#\	.	16aa\	.	8D\	-us	8dd\	-us	8f#/J	8d\J
.	.	16ff#\JJ	.	16aa\JJ	.	.	.	.	.	.	.
8r	.	16dd\LL	.	16ff#\LL	.	8r	.	8r	.	8r	8r
.	.	16dd\	.	16ff#\	.	.	.	.	.	.	.
8F#\	6	16a\	.	16dd\	.	8F#\	in	8dd\	in	8dd\	8d\
.	.	16f#\JJ	.	16dd\JJ	.	.	.	.	.	.	.
=10	=10	=10	=10	=10	=10	=10	=10	=10	=10	=10	=10
8G\L	.	16b\LL	.	16b\LL	.	8G\	De-	8b\	De-	8dd\L	8d\L
.	.	16b\	.	16b\	.	.	.	.	.	.	.
8G\	.	16b\	.	16dd\	.	8G\	-o	8dd\	-o	8dd\	8d\
.	.	16b\JJ	.	16dd\JJ	.	.	.	.	.	.	.
!	!	!	!	!	!	!	!	!LO:LB:g=original	!	!	!
8G\	6	16b\LL	.	16ee\LL	.	8G\	Sa-	8ee\	Sa-	8ee\	8g\
.	.	16b\	.	16ee\	.	.	.	.	.	.	.
8G\J	5	16b\	.	16dd\	.	8G\	-lu-	8dd\	-lu-	8dd\J	8f#\J
.	.	16b\JJ	.	16dd\JJ	.	.	.	.	.	.	.
=11	=11	=11	=11	=11	=11	=11	=11	=11	=11	=11	=11
!LO:TX:a:t=P:mixed beam:problem	!	!	!	!	!	!	!	!	!	!	!
8A\L	.	16cc#\LL	.	16cc#\LL	.	8A\	-ta-	8cc#\	-ta-	8a/L	8e\L
.	.	16cc#\	.	16ee\	.	.	.	.	.	.	.
8D\	.	16dd\	.	16ff#\	.	8D\	-ri	8dd\	-ri	8dd/J	8f#\
.	.	16dd\JJ	.	16ff#\JJ	.	.	.	.	.	.	.
!	!	!	!	!	!	!LO:TX:a:t=P:mixed beam:problem	!	!	!	!	!
8A\	4	16dd\LL	.	16ee\LL	.	(8A\L	me-	(8dd\L	me-	8.a/L	8.e\
.	.	16dd\	.	16ee\	.	.	.	.	.	.	.
8AA/J	3	16cc#\	.	16ee\	.	8AA/J)	.	8cc#\J)	.	.	.
.	.	16cc#\JJ	.	16ee\JJ	.	.	.	.	.	16a/Jk	16e\Jk
=12	=12	=12	=12	=12	=12	=12	=12	=12	=12	=12	=12
4D\	.	4dd\	.	4dd\	.	4E\	-a	4dd\	-o	4f#/	4d\
4r	.	4r	.	4r	.	4r	.	4r	.	4r	4r
!	!	!	!	!LO:LB:g=original	!	!LO:LB:g=original	!	!	!	!	!
=13	=13	=13	=13	=13	=13	=13	=13	=13	=13	=13	=13
!	!	!	!	!	!	!LO:N:vis=00	!	!LO:TX:a:i:t=Solo	!	!LO:N:vis=00	!LO:N:vis=00
8BB/L	.	4d/	p	4d/	.	0r	.	4b\	Qui-	0r	0r
16BB/L	.	.	.	.	.	.	.	.	.	.	.
16C#/JJ	.	.	.	.	.	.	.	.	.	.	.
16D/LL	6	8d/L	.	8d/L	.	.	.	8b\	-a	.	.
16C#/	.	.	.	.	.	.	.	.	.	.	.
16D/	.	8d/J	.	8d/J	.	.	.	8b\	re-	.	.
16E/JJ	.	.	.	.	.	.	.	.	.	.	.
!LO:LB:g=original	!	!	!	!	!	!	!	!	!	!	!
=14	=14	=14	=14	=14	=14	=14	=14	=14	=14	=14	=14
8F#\L	6 4	8c#/L	.	8c#/L	.	.	.	8b\	-spe-	.	.
16F#\L	#	8c#/	.	8c#/	.	.	.	16a#X\	-xit	.	.
16G#X\JJ	.	.	.	.	.	.	.	16a#\	hu-	.	.
16A#X\LL	6	8c#/	.	8c#/	.	.	.	8a#\	-mi-	.	.
16G#\	.	.	.	.	.	.	.	.	.	.	.
16A#\	.	8a#X/J	.	8a#X/J	.	.	.	8cc#\	-li-	.	.
16F#\JJ	.	.	.	.	.	.	.	.	.	.	.
=15	=15	=15	=15	=15	=15	=15	=15	=15	=15	=15	=15
!LO:TX:a:t=P:mixed beam:problem	!	!	!	!	!	!	!	!	!	!	!
8B\L	9-	8f#/L	.	8f#/L	.	.	.	(8cc#\L	-ta-	.	.
16BB/L	.	8d/	.	8d/	.	.	.	8b\J)	.	.	.
16C#/JJ	8	.	.	.	.	.	.	.	.	.	.
16D/LL	6	8d/	.	8d/	.	.	.	8b\	-tem	.	.
16C#/	.	.	.	.	.	.	.	.	.	.	.
16D/	.	8b/J	.	8b/J	.	.	.	8dd\	an-	.	.
16BB/JJ	.	.	.	.	.	.	.	.	.	.	.
=16	=16	=16	=16	=16	=16	=16	=16	=16	=16	=16	=16
8F#\L	6 4	8b/L	.	8b/L	.	.	.	(8dd\L	-cil-	.	.
16F#\L	x #	8a#X/J	.	8a#X/J	.	.	.	8cc#\J)	.	.	.
16G#X\JJ	.	.	.	.	.	.	.	.	.	.	.
16An\LL	6	4a#/	.	4a#/	.	.	.	4cc#\	-lae	.	.
16G#X\	.	.	.	.	.	.	.	.	.	.	.
16A\	.	.	.	.	.	.	.	.	.	.	.
16F#\JJ	.	.	.	.	.	.	.	.	.	.	.
=17	=17	=17	=17	=17	=17	=17	=17	=17	=17	=17	=17
!	!	!	!	!	!	!	!	!	!	!LO:N:vis=00	!LO:N:vis=00
8.B\L	-	8.f#/L	.	8.f#/L	.	4r	.	8dd\	su-	0r	0r
.	.	.	.	.	.	.	.	8b\	-ae	.	.
16B\Jk	.	16b/Jk	.	16b/Jk	.	.	.	.	.	.	.
16An\LL	.	16an/LL	.	16an/LL	.	8r	.	8r	.	.	.
16Gn\	.	16gn/	.	16gn/	.	.	.	.	.	.	.
16F#\	.	16f#/	.	16f#/	.	16E\	Qui-	16cc#\	ec-	.	.
16E\JJ	.	16e/JJ	.	16e/JJ	.	16E\	-a	16cc#\	-ce	.	.
=18	=18	=18	=18	=18	=18	=18	=18	=18	=18	=18	=18
!LO:SIC:o=:v:nieczytelne cyfrowanie	!	!	!	!	!	!	!	!	!	!	!
8D\L	.	8d/L	.	8d/L	.	8F#\	fe-	4dd\	e-	.	.
16D\L	.	16d/L	.	16d/L	.	8F#\	-cit	.	.	.	.
16E\JJ	.	16e/JJ	.	16e/JJ	.	.	.	.	.	.	.
!	!	!LO:LB:g=original	!	!	!	!	!	!	!	!	!
16F#\LL	6	16f#/LL	.	16f#/LL	.	8F#\	mi-	8dd\	-nim	.	.
16E\	.	16e/	.	16e/	.	.	.	.	.	.	.
16F#\	.	16f#/	.	16f#/	.	8F#\	-hi	8dd\	ex	.	.
16D\JJ	.	16d/JJ	.	16d/JJ	.	.	.	.	.	.	.
=19	=19	=19	=19	=19	=19	=19	=19	=19	=19	=19	=19
!LO:TX:a:t=P:mixed beam:problem	!	!	!	!	!	!	!	!	!	!	!
8A\L	4	8a/L	.	8a/L	.	4E\	ma-	8dd\L	hoc	.	.
16AA/L	3	16A/L	.	16A/L	.	.	.	8cc#\J	.	.	.
16BB/JJ	.	16B/JJ	.	16B/JJ	.	.	.	.	.	.	.
16C#/LL	6	16c#/LL	.	16c#/LL	.	8E\	-gna	4cc#\	be-	.	.
16BB/	.	16B/	.	16B/	.	.	.	.	.	.	.
16C#/	.	16c#/	.	16c#/	.	8E\	qui	.	.	.	.
16AA/JJ	.	16A/JJ	.	16A/JJ	.	.	.	.	.	.	.
=20	=20	=20	=20	=20	=20	=20	=20	=20	=20	=20	=20
8BB/L	9	8B/L	.	8B/L	.	4.D\	po-	(8cc#\L	-a-	.	.
16BB/L	-	16B/L	.	16B/L	.	.	.	8b\J)	.	.	.
16C#/JJ	.	16c#/JJ	.	16c#/JJ	.	.	.	.	.	.	.
!	!	!	!	!	!	!	!	!LO:LB:g=original	!	!	!
16D/LL	.	16d/LL	.	16d/LL	.	.	.	8b\	-tam	.	.
16C#/	.	16c#/	.	16c#/	.	.	.	.	.	.	.
16D/	.	16d/	.	16d/	.	8D\	-tens	8b\	me-	.	.
16E/JJ	.	16e/JJ	.	16e/JJ	.	.	.	.	.	.	.
!LO:LB:g=original	!	!	!	!	!	!	!	!	!	!	!
=21	=21	=21	=21	=21	=21	=21	=21	=21	=21	=21	=21
!	!	!	!	!	!	!	!	!	!	!LO:N:vis=00	!LO:N:vis=00
8F#\L	4	8f#/L	.	8f#/L	.	4C#/	est	(8b\L	-di-	0r	0r
16F#\L	-_	16f#/L	.	16f#/L	.	.	.	8an\J)	.	.	.
16G\JJ	.	16g/JJ	.	16g/JJ	.	.	.	.	.	.	.
16A\LL	.	16a/LL	.	16a/LL	.	8r	.	4a\	-cent	.	.
16G\	x	16g/	.	16g/	.	.	.	.	.	.	.
16A\	.	16a/	.	16a/	.	8C#/	et	.	.	.	.
16F#\JJ	.	16f#/JJ	.	16f#/JJ	.	.	.	.	.	.	.
=22	=22	=22	=22	=22	=22	=22	=22	=22	=22	=22	=22
!LO:TX:a:t=P:mixed beam:problem	!	!	!	!	!	!	!	!	!	!	!
8G\L	9	8g/L	.	8g/L	.	4.BB/	San-	(8a\L	o-	.	.
16GG/L	5 3_	16G/L	.	16G/L	.	.	.	8g\J)	.	.	.
16AA/JJ	.	16A/JJ	.	16A/JJ	.	.	.	.	.	.	.
16BB/LL	.	16B/LL	.	16B/LL	.	.	.	4g\	-mnes	.	.
16AA/	.	16A/	.	16A/	.	.	.	.	.	.	.
16BB/	x	16B/	.	16B/	.	8BB/	-ctum	.	.	.	.
16C#/JJ	.	16c#/JJ	.	16c#/JJ	.	.	.	.	.	.	.
=23	=23	=23	=23	=23	=23	=23	=23	=23	=23	=23	=23
8D\L	4	8d/L	.	8d/L	.	4.AA/	No-	8g/	ge-	.	.
.	3	.	.	.	.	.	.	.	.	.	.
16D\L	.	16d/L	.	16d/L	.	.	.	8f#/	-ne-	.	.
16E\JJ	.	16e/JJ	.	16e/JJ	.	.	.	.	.	.	.
!	!	!	!	!LO:LB:g=original	!	!	!	!	!	!	!
16F#\LL	6	16f#/LL	.	16f#/LL	.	.	.	8f#/	-ra-	.	.
16E\	.	16e/	.	16e/	.	.	.	.	.	.	.
16F#\	.	16f#/	.	16f#/	.	8F#\	-men	8dd\	-ti-	.	.
16D\JJ	.	16d/JJ	.	16d/JJ	.	.	.	.	.	.	.
=24	=24	=24	=24	=24	=24	=24	=24	=24	=24	=24	=24
8A\L	6 4	8a/L	.	8a\L	.	8F#\	e-	8ee\	-o-	.	.
16A\L	- 3	16a/L	.	16a\L	.	8E\	-jus	8cc#\	-nes	.	.
16B\JJ	.	16b/JJ	.	16b\JJ	.	.	.	.	.	.	.
8c#\L	6	8cc#\L	.	8cc#\L	.	8r	.	8r	.	.	.
8A\J	.	8a\J	.	8a\J	.	16c#\	et	16ee\	Et	.	.
.	.	.	.	.	.	16c#\	ami-	16ee\	mi-	.	.
=25	=25	=25	=25	=25	=25	=25	=25	=25	=25	=25	=25
!LO:TX:a:t=P:mixed beam:problem	!	!	!	!	!	!	!	!	!	!LO:N:vis=00	!LO:N:vis=00
8d\L	-_	4dd\	.	4dd\	.	8d\	-se-	8ff#\	-se-	0r	0r
8d\	.	.	.	.	.	8A\	-ri-	8ff#\	-ri	.	.
8d\	.	4r	.	4r	.	8A\	-cor-	8ff#\	cor-	.	.
8D/J	x	.	.	.	.	16d\	-di-	16ff#\	-di-	.	.
.	.	.	.	.	.	16d\	-a	16ff#\	-a	.	.
!	!	!LO:LB:g=original	!	!	!	!	!	!	!	!	!
=26	=26	=26	=26	=26	=26	=26	=26	=26	=26	=26	=26
!	!	!LO:N:vis=00	!	!LO:N:vis=00	!	!	!	!	!	!	!
8A\L	-	0r	.	0r	.	8d\	e-	8ff#\	e-	.	.
8A\	6 4	.	.	.	.	8c#\	-jus	8ee\	-jus	.	.
8A\	- 3	.	.	.	.	8E\	a-	8cc#X\	a	.	.
8A\J	3 -	.	.	.	.	8E\	-pro-	8cc#\	pro-	.	.
!	!	!	!	!	!	!LO:LB:g=original	!	!	!	!	!
=27	=27	=27	=27	=27	=27	=27	=27	=27	=27	=27	=27
!LO:TX:a:t=P:mixed beam:problem	!	!	!	!	!	!	!	!	!	!	!
8A\L	5 -6	.	.	.	.	8Fn\	-ge-	8dd\	-ge-	.	.
8A\	.	.	.	.	.	16E\	-ni-	16cc#\	-ni-	.	.
.	.	.	.	.	.	16E\	-e	16cc#\	-e	.	.
8A\	n 5	.	.	.	.	8E\	in	8cc#\	in	.	.
8AA/J	.	.	.	.	.	8E\	pro-	8cc#\	pro-	.	.
=28	=28	=28	=28	=28	=28	=28	=28	=28	=28	=28	=28
8.AA/L	4 6	.	.	.	.	8.Fn\	-ge-	8.dd\	-ge-	.	.
16AA/K	.	.	.	.	.	16E\	-ni-	16cc#\	-ni-	.	.
8AA/	3 5	.	.	.	.	8E\	-es	8cc#\	-es	.	.
8AA/J	.	.	.	.	.	8E\	ti-	8cc#\	ti-	.	.
!	!	!	!	!	!	!	!	!LO:LB:g=original	!	!	!
=29	=29	=29	=29	=29	=29	=29	=29	=29	=29	=29	=29
!LO:TX:a:t=P:mixed beam:problem	!	!	!	!	!	!	!	!	!	!	!
8D\L	-	.	.	.	.	8Fn\	-men-	8dd\	-men-	2r	2r
8F#\	-	.	.	.	.	16F\	-ti-	16dd\	-ti-	.	.
.	.	.	.	.	.	16F\	-bus	16dd\	-bus	.	.
8A\	4	.	.	.	.	4E\	e-	(8dd\L	e-	.	.
!LO:SIC:o=:v:nieczytelne cyfrowanie	!	!	!	!	!	!	!	!	!	!	!
8AA\J	.	.	.	.	.	.	.	8cc#\J)	.	.	.
=30	=30	=30	=30	=30	=30	=30	=30	=30	=30	=30	=30
!LO:TX:a:t=P:mixed beam:problem	!	!	!	!	!	!	!	!	!	!	!
8D/L	.	8r	.	8r	.	8D/	-um	8dd\	-um	8r	8r
!	!	!	!	!	!	!	!	!	!	!LO:TX:a:t=P:mixed beam:problem	!
8d\	#	8ff#\L	.	8ff#\L	.	8d\	Fe-	8ff#\	Fe-	8dd\L	8f#\L
8d\	.	8ff#\	.	8aa\	.	8d\	-cit	8ff#\	-cit	8dd/	8f#\
8d\J	.	8ff#\J	.	8ddd\J	.	8d\	po-	8ff#\	po-	8a/J	8e\J
!LO:LB:g=original	!	!	!	!	!	!	!	!	!	!	!
=31	=31	=31	=31	=31	=31	=31	=31	=31	=31	=31	=31
8.A\L	.	16ee\LL	.	16ee\LL	.	8.A\	-ten-	8.ee\	-ten-	8a/L	8e\L
.	.	16ee\	.	16ccc#\	.	.	.	.	.	.	.
.	.	16ee\	.	16ccc#\	.	.	.	.	.	8a/	8e\
16A\K	.	16ee\JJ	.	16ccc#\JJ	.	16A\	-ti-	16ee\	-ti-	.	.
8A\	.	16cc#\LL	.	16ee\LL	.	8A\	-am	8ee\	-am	8a/	8e\
.	.	16ee\	.	16ccc#\	.	.	.	.	.	.	.
8A\J	.	16ee\	.	16ccc#\	.	8A\	in	8ee\	in	8a/J	8e\J
.	.	16ee\JJ	.	16ccc#\JJ	.	.	.	.	.	.	.
!	!	!	!	!	!	!	!	!	!	!LO:LB:g=original	!LO:LB:g=original
=32	=32	=32	=32	=32	=32	=32	=32	=32	=32	=32	=32
8F#\L	6	16ff#\LL	.	16ddd\LL	.	8F#\L	bra-	4dd\	bra-	4dd\	4d\
.	.	16ff#\	.	16ddd\	.	.	.	.	.	.	.
8D\	.	16ff#\	.	16ddd\	.	(8D\J	.	.	.	.	.
.	.	16ff#\JJ	.	16ddd\JJ	.	.	.	.	.	.	.
8F#\	6	16gg\LL	.	16eee\LL	.	8G\)	-hi-	8ee\	-hi-	8ee\L	8g\L
.	.	16gg\	.	16eee\	.	.	.	.	.	.	.
8G\J	5	16ff#\	.	16ddd\	.	8G\	-o	8dd\	-o	8dd\J	8f#\J
.	.	16ff#\JJ	.	16ddd\JJ	.	.	.	.	.	.	.
=33	=33	=33	=33	=33	=33	=33	=33	=33	=33	=33	=33
!	!	!	!	!	!	!	!	!	!	!LO:TX:a:t=P:mixed beam:problem	!
8A\L	6 4	8ff#\L	.	8ddd\L	.	8A\	Su-	8dd\	Su-	8dd\L	8f#\L
8A\J	- 3	8ee\J	.	8ccc#\J	.	8A\	-o	8cc#\	-o	8a/J	8e\J
8r	.	8r	.	8r	.	8r	.	8r	.	8r	8r
8A\	-	8ee\	.	8aa\	.	8A\	dis-	8ee\	dis-	8a/	8e\
=34	=34	=34	=34	=34	=34	=34	=34	=34	=34	=34	=34
!	!	!	!	!	!	!	!	!	!	!LO:TX:a:t=P:mixed beam:problem	!
8A\L	6 4	16ff#\LL	.	16ddd\LL	.	4A\	-per-	(8ff#\L	-per-	8dd\L	8f#\L
.	.	16ff#\	.	16ddd\	.	.	.	.	.	.	.
8A\	- 3	16ee\	.	16ccc#\	.	.	.	8ee\J)	.	8a/J	8e\
.	.	16ee\JJ	.	16ccc#\JJ	.	.	.	.	.	.	.
!	!	!	!	!	!	!	!	!	!	!LO:TX:a:t=P:mixed beam:problem	!
8A\	6 4	16ff#\LL	.	16ddd\LL	.	8A\	-sit	8ff#\	-sit	8dd\L	8f#\
.	.	16ff#\	.	16ddd\	.	.	.	.	.	.	.
8A\J	- 3	16ee\	.	16ccc#\	.	8A\	su-	8ee\	su-	8a/J	8e\J
.	.	16ee\JJ	.	16ccc#\JJ	.	.	.	.	.	.	.
=35	=35	=35	=35	=35	=35	=35	=35	=35	=35	=35	=35
8A\L	6 4	16ff#\LL	.	16ddd\LL	.	8A\	-per-	8ff#\	-per-	8dd/L	8f#\L
.	.	16ff#\	.	16ddd\	.	.	.	.	.	.	.
8A\	- 3	16ee\	.	16ccc#\	.	8A\	-bos	8ee\	-bos	8a/	8e\
.	.	16ee\JJ	.	16ccc#\JJ	.	.	.	.	.	.	.
8A\	6 4	16ff#\LL	.	16ddd\LL	.	8A\	men-	8ff#\	men-	8dd/	8f#\
.	.	16ff#\	.	16ddd\	.	.	.	.	.	.	.
8A\J	- 3	16ee\	.	16ccc#\	.	8A\	-te	8ee\	-te	8a/J	8e\J
.	.	16ee\JJ	.	16ccc#\JJ	.	.	.	.	.	.	.
=36	=36	=36	=36	=36	=36	=36	=36	=36	=36	=36	=36
!LO:TX:a:t=P:mixed beam:problem	!	!	!	!	!	!	!	!	!	!LO:TX:a:t=P:mixed beam:problem	!
8D\L	.	8ff#\L	.	8ddd\L	.	8D\	Cor-	8ff#\	cor-	8dd\L	8f#\L
8F#\	.	8dd\J	.	8ff#\J	.	8F#\	-dis	8dd\	-dis	8dd\	8d\
!	!	!	!	!	!	!LO:LB:g=original	!	!	!	!	!
!	!	!	!	!	!	!LO:TX:a:t=P:mixed beam:problem	!	!	!	!	!
8A\	4	8ee\L	.	8ee\L	.	8A\L	Su-	(8dd\L	su-	8.a/	8.e\
8AA/J	3	16dd\L	.	(16dd\L	.	8AA/J	.	8cc#\J)	.	.	.
.	.	16cc#\JJ	.	16cc#\JJ)	.	.	.	.	.	16a/Jk	16e\Jk
!	!	!	!	!LO:LB:g=original	!	!	!	!LO:LB:g=original	!	!	!
=37	=37	=37	=37	=37	=37	=37	=37	=37	=37	=37	=37
!LO:TX:a:t=P:mixed beam:problem	!	!	!	!	!	!	!	!	!	!	!
8D/L	.	8dd\	.	8dd\	.	4D\	-j	4dd\	-i	8f#/	8d\
8d\	.	4a/	.	4ff#\	.	.	.	.	.	8r	8r
8d\	.	.	.	.	.	4r	.	4r	.	4r	4r
8d\J	.	8dd\	.	8ff#\	.	.	.	.	.	.	.
!	!	!LO:LB:g=original	!	!	!	!	!	!	!	!	!
=38	=38	=38	=38	=38	=38	=38	=38	=38	=38	=38	=38
!	!	!	!	!	!	!LO:N:vis=00	!	!LO:N:vis=00	!	!LO:N:vis=00	!LO:N:vis=00
8c#\L	6	16ee\LL	.	16ee\LL	.	0r	.	0r	.	0r	0r
.	.	16ee\	.	16ee\	.	.	.	.	.	.	.
8c#\	.	16aa\	.	16aa\	.	.	.	.	.	.	.
.	.	16aa\JJ	.	16aa\JJ	.	.	.	.	.	.	.
8c#\	.	16ccc#\LL	.	16ccc#\LL	.	.	.	.	.	.	.
.	.	16ccc#\	.	16ccc#\	.	.	.	.	.	.	.
8c#\J	.	16ee\	.	16ee\	.	.	.	.	.	.	.
.	.	16ee\JJ	.	16ee\JJ	.	.	.	.	.	.	.
=39	=39	=39	=39	=39	=39	=39	=39	=39	=39	=39	=39
8B\L	-	16dd\LL	.	16dd\LL	.	.	.	.	.	.	.
.	.	16dd\	.	16dd\	.	.	.	.	.	.	.
8B\	6\_	16gg#X\	.	16gg#X\	.	.	.	.	.	.	.
.	.	16gg#\JJ	.	16gg#\JJ	.	.	.	.	.	.	.
8B\	.	16bb\LL	.	16bb\LL	.	.	.	.	.	.	.
.	.	16bb\	.	16bb\	.	.	.	.	.	.	.
8B\J	.	16dd\	.	16dd\	.	.	.	.	.	.	.
.	x	16dd\JJ	.	16dd\JJ	.	.	.	.	.	.	.
=40	=40	=40	=40	=40	=40	=40	=40	=40	=40	=40	=40
4A\	.	16cc#\LL	.	16cc#\LL	.	.	.	.	.	.	.
.	.	16cc#\	.	16cc#\	.	.	.	.	.	.	.
.	.	16ee\	.	16ee\	.	.	.	.	.	.	.
.	.	16ee\JJ	.	16ee\JJ	.	.	.	.	.	.	.
8r	.	16aa\LL	.	16aa\LL	.	.	.	.	.	.	.
.	.	16aa\	.	16aa\	.	.	.	.	.	.	.
8A\	.	16cc#\	.	16cc#\	.	.	.	.	.	.	.
.	.	16cc#\JJ	.	16cc#\JJ	.	.	.	.	.	.	.
=41	=41	=41	=41	=41	=41	=41	=41	=41	=41	=41	=41
8E\L	#	8b/L	.	8b/L	.	.	.	.	.	.	.
8C#\	.	8a/	.	8a/	.	.	.	.	.	.	.
8D\	.	8d/	.	8d/	.	.	.	.	.	.	.
8E\J	.	8e/J	.	8e/J	.	.	.	.	.	.	.
=42	=42	=42	=42	=42	=42	=42	=42	=42	=42	=42	=42
!	!	!	!	!	!	!	!	!	!	!LO:N:vis=00	!LO:N:vis=00
8AA/L	.	8A/L	.	8A/L	p	8r	.	8r	.	0r	0r
16AA/L	.	16A/L	.	16A/L	.	8A\	Sus-	8aa\	De-	.	.
16BB/JJ	.	16B/JJ	.	16B/JJ	.	.	.	.	.	.	.
16C#/LL	6	16c#/LL	.	16c#/LL	.	8c#\	-ce-	8aa\	-po-	.	.
16BB/	.	16B/	.	16B/	.	.	.	.	.	.	.
16C#/	.	16c#/	.	16c#/	.	8A\	-pit	8aa\	-su-	.	.
16D/JJ	.	16d/JJ	.	16d/JJ	.	.	.	.	.	.	.
!LO:LB:g=original	!	!	!	!	!	!	!	!	!	!	!
=43	=43	=43	=43	=43	=43	=43	=43	=43	=43	=43	=43
8E\L	4	8e/L	.	8e/L	.	8.E\	I-	8aa\L	-it	.	.
.	#	.	.	.	.	.	.	.	.	.	.
16E\L	.	16e/L	.	16e/L	.	.	.	8gg#X\J	.	.	.
16F#\JJ	.	16f#/JJ	.	16f#/JJ	.	16E\	-sra-	.	.	.	.
16G#X\LL	6	16g#X/LL	.	16g#X/LL	.	4E\	-el	4gg#\	po-	.	.
16F#\	.	16f#/	.	16f#/	.	.	.	.	.	.	.
16G#\	.	16g#/	.	16g#/	.	.	.	.	.	.	.
16E\JJ	.	16e/JJ	.	16e/JJ	.	.	.	.	.	.	.
=44	=44	=44	=44	=44	=44	=44	=44	=44	=44	=44	=44
!LO:SIC:o=:v:nieczytelne cyfrowanie	!	!	!	!	!	!	!	!	!	!	!
8F#\L	.	8f#/L	.	8f#/L	.	4F#\	Pu-	(8gg\L	-ten-	.	.
16F#\L	.	16f#/L	.	16f#/L	.	.	.	8ff#\J)	.	.	.
16G#X\JJ	.	16g#X/JJ	.	16g#X/JJ	.	.	.	.	.	.	.
16A\LL	.	16a/LL	.	16a/LL	.	8A\	-e-	8ff#\	-tes	.	.
16G#X\	.	16g#X/	.	16g#X/	.	.	.	.	.	.	.
16A\	.	16a/	.	16a/	.	8B\	-rum	8ee\	de	.	.
16B\JJ	.	16b/JJ	.	16b/JJ	.	.	.	.	.	.	.
=45	=45	=45	=45	=45	=45	=45	=45	=45	=45	=45	=45
!LO:TX:a:t=P:mixed beam:problem	!	!LO:TX:a:t=P:mixed beam:problem	!	!LO:TX:a:t=P:mixed beam:problem	!	!	!	!	!	!	!
8c#\L	4-_	8cc#\L	.	8cc#\L	.	8c#\	Su-	(8ff#\L	se-	.	.
16C#/L	.	16c#/L	.	16c#/L	.	8C#/	-um	8ee\J)	.	.	.
16D/JJ	.	16d/JJ	.	16d/JJ	.	.	.	.	.	.	.
!	!	!LO:LB:g=original	!	!	!	!	!	!	!	!	!
16E\LL	.	16e/LL	.	16e/LL	.	8E\	re-	8ee\	-de	.	.
16D\	.	16d/	.	16d/	.	.	.	.	.	.	.
16E\	x	16e/	.	16e/	.	8C#/	-cor-	8ee\	et	.	.
16C#\JJ	.	16c#/JJ	.	16c#/JJ	.	.	.	.	.	.	.
!	!	!	!	!LO:LB:g=original	!	!	!	!	!	!	!
=46	=46	=46	=46	=46	=46	=46	=46	=46	=46	=46	=46
!	!	!	!	!	!	!	!	!	!	!LO:N:vis=00	!LO:N:vis=00
8D\L	9 3	8d/L	.	8d/L	.	4D\	-da-	(8ee\L	e-	0r	0r
16D\L	x 5	16d/L	.	16d/L	.	.	.	8dd\J)	.	.	.
16E\JJ	.	16e/JJ	.	16e/JJ	.	.	.	.	.	.	.
16F#\LL	x 6	16f#/LL	.	16f#/LL	.	8F#\	-tus	4dd\	-xul-	.	.
16E\	.	16e/	.	16e/	.	.	.	.	.	.	.
16F#\	.	16f#/	.	16f#/	.	(16F#\LL	mi-	.	.	.	.
16G#X\JJ	.	16g#X/JJ	.	16g#X/JJ	.	16G#X\JJ)	.	.	.	.	.
=47	=47	=47	=47	=47	=47	=47	=47	=47	=47	=47	=47
!LO:TX:a:t=P:mixed beam:problem	!	!	!	!	!	!LO:TX:a:t=P:mixed beam:problem	!	!	!	!	!
8A\L	4#_	8a/L	.	8a/L	.	8A\L	-se-	(8dd\L	-ta-	.	.
16AA/L	.	16A/L	.	16A/L	.	8AA/J	.	8cc#\J)	.	.	.
16BB/JJ	.	16B/JJ	.	16B/JJ	.	.	.	.	.	.	.
16C#/LL	.	16c#/LL	.	16c#/LL	.	(8C#/L	-ri-	4cc#\	.	.	.
16BB/	.	16B/	.	16B/	.	.	.	.	.	.	.
16C#/	.	16c#/	.	16c#/	.	8AA/J)	.	.	.	.	.
16AA/JJ	x	16A/JJ	.	16A/JJ	.	.	.	.	.	.	.
=48	=48	=48	=48	=48	=48	=48	=48	=48	=48	=48	=48
!LO:TX:a:t=P:mixed beam:problem	!	!LO:TX:a:t=P:mixed beam:problem	!	!LO:TX:a:t=P:mixed beam:problem	!	!LO:TX:a:t=P:mixed beam:problem	!	!	!	!	!
8BB/L	-	8B/L	.	8B/L	.	8BB/L	-cor-	(8cc#\L	.	.	.
16B\L	.	16b\L	.	(16b\L	.	16B\L	.	8b\J)	.	.	.
16A\JJ	.	16a\JJ	.	16a\JJ)	.	16A\JJ	.	.	.	.	.
16G#X\LL	.	16g#X/LL	.	16g#X/LL	.	16G#X\LL	.	4b\	.	.	.
16F#\	.	16f#/	.	16f#/	.	16F#\	.	.	.	.	.
16G#\	.	16g#/	.	16g#/	.	16G#\	.	.	.	.	.
16E\JJ	.	16e/JJ	.	16e/JJ	.	16E\JJ	.	.	.	.	.
=49	=49	=49	=49	=49	=49	=49	=49	=49	=49	=49	=49
!LO:TX:a:t=P:mixed beam:problem	!	!	!	!	!	!	!	!	!	!	!
8A\L	.	8a/L	.	8a/L	.	4A\	.	(8b\L	.	.	.
16AA/L	.	16A/L	.	16A/L	.	.	.	8a\J)	.	.	.
16BB/JJ	.	16B/JJ	.	16B/JJ	.	.	.	.	.	.	.
16C#/LL	.	16c#/LL	.	16c#/LL	.	8C#/	-di-	4a\	-vit	.	.
16BB/	.	16B/	.	16B/	.	.	.	.	.	.	.
16C#/	.	16c#/	.	16c#/	.	8AA/	-ae	.	.	.	.
16AA/JJ	.	16A/JJ	.	16A/JJ	.	.	.	.	.	.	.
!LO:LB:g=original	!	!	!	!	!	!	!	!	!	!	!
=50	=50	=50	=50	=50	=50	=50	=50	=50	=50	=50	=50
8E\L	#	8e/L	.	8e/L	.	8E\L	Su-	8g#X\L	hu-	2r	2r
8C#\	.	8c#/	.	8c#/	.	(8C#\	.	8a\J	.	.	.
8D\	6	8d/	.	8d/	.	8D\	.	8.f#/	-mi-	.	.
8E\J	3	8e/J	.	8e/J	.	8E\J)	.	.	.	.	.
.	.	.	.	.	.	.	.	16gn/	.	.	.
!	!	!	!	!	!	!	!	!LO:LB:g=original	!	!	!
=51	=51	=51	=51	=51	=51	=51	=51	=51	=51	=51	=51
!LO:TX:a:t=P:mixed beam:problem	!	!LO:TX:a:t=P:mixed beam:problem	!	!LO:TX:a:t=P:mixed beam:problem	!	!	!	!	!	!	!
8AA/L	.	8A/L	.	8A/L	f	8AA/	-ae	8a\	-les	8r	8r
8d\	.	8ff#\	.	8ff#\	.	8d\	Si-	8ff#\	si-	8dd\L	8f#\L
8d\	.	8aa\	.	8aa\	.	8d\	-cut	8ff#\	-cut	8dd\	8f#\
8d\J	.	8ff#\J	.	8ddd\J	.	8d\	lo-	8ff#\	lo-	8dd\J	8f#\J
!	!	!	!	!	!	!LO:LB:g=original	!	!	!	!	!
=52	=52	=52	=52	=52	=52	=52	=52	=52	=52	=52	=52
8A\L	.	16cc#\LL	.	16ee\LL	.	8A\	-cu-	8ee\	-cu-	8a/L	8f#\L
.	.	16ee\	.	16ccc#\	.	.	.	.	.	.	.
8A\	.	16ee\	.	16ccc#\	.	8A\	-tus	8ee\	-tus	8a/	8e\
.	.	16ee\JJ	.	16ccc#\JJ	.	.	.	.	.	.	.
8A\	.	16cc#\LL	.	16ee\LL	.	8A\	est	8ee\	est	8a/	8e\
.	.	16ee\	.	16ccc#\	.	.	.	.	.	.	.
8A\J	.	16ee\	.	16ccc#\	.	8A\	ad	8ee\	ad	8a/J	8e\J
.	.	16ee\JJ	.	16ccc#\JJ	.	.	.	.	.	.	.
!	!	!LO:LB:g=original	!	!	!	!	!	!	!	!	!
=53	=53	=53	=53	=53	=53	=53	=53	=53	=53	=53	=53
8F#\L	6_	16a\LL	.	16ff#\LL	.	8F#\L	Pa-	4dd\	Pa-	4dd\	4d\
.	.	16a\	.	16ff#\	.	.	.	.	.	.	.
8E\	.	16ff#\	.	16aa\	.	(8E\J	.	.	.	.	.
.	.	16ff#\JJ	.	16aa\JJ	.	.	.	.	.	.	.
8D\	.	16aa\LL	.	16ddd\LL	.	(8D\L)	-tres	4dd\	-tres	4a/	4d\
.	.	16aa\	.	16ddd\	.	.	.	.	.	.	.
8F#\J	.	16ff#\	.	16ff#\	.	8F#\J)	.	.	.	.	.
.	.	16dd\JJ	.	(16ff#\JJ	.	.	.	.	.	.	.
=54	=54	=54	=54	=54	=54	=54	=54	=54	=54	=54	=54
!LO:TX:a:t=P:mixed beam:problem	!	!	!	!	!	!	!	!	!	!	!
8A\L	6 4	8dd\L	.	8ff#\L)	.	8A\	no-	8dd\	No-	8d/L	8A/L
8AA/J	- n	8cc#\J	.	8ee\J	.	8A\	-stros	8cc#\	-stros	8a/J	8A/J
4r	.	4r	.	4r	.	4r	.	4r	.	4r	4r
!	!	!	!	!LO:LB:g=original	!	!	!	!	!	!	!
=55	=55	=55	=55	=55	=55	=55	=55	=55	=55	=55	=55
!LO:TX:a:t=P:mixed beam:problem	!	!	!	!	!	!	!	!	!	!	!
8.d\L	.	2r	.	2r	.	8.d\	A-	8.dd\	A-	2r	2r
16D/Jk	.	.	.	.	.	16D/	-bra-	16d/	-bra-	.	.
4D/	.	.	.	.	.	4D/	-ham	4d/	-ham	.	.
=56	=56	=56	=56	=56	=56	=56	=56	=56	=56	=56	=56
!LO:TX:a:t=P:mixed beam:problem	!	!	!	!	!	!	!	!	!	!	!
8.d\L	.	4r	.	4r	.	8.d\	A-	8.dd\	A-	4r	4r
16D/K	.	.	.	.	.	16D/	-bra-	16d/	-bra-	.	.
8D/	.	8r	.	8r	.	8D/	-ham	8d/	-h(am)	8r	8r
8D/J	.	8dd\	.	8dd\	.	8D/	et	8dd\	et	8f#/	8d\
=57	=57	=57	=57	=57	=57	=57	=57	=57	=57	=57	=57
!LO:TX:a:t=P:mixed beam:problem	!	!	!	!	!	!	!	!	!	!	!
8A\L	.	8ee\L	.	8ee\L	.	8A\	Se-	8ee\	se-	8a/L	8e\L
8A\	.	8ee\	.	8ccc#\	.	16A\	-mi-	16ee\	-mi-	8a/	8e\
.	.	.	.	.	.	16A\	-ni	16ee\	-ni	.	.
8d\	.	8ff#\	.	8ddd\	.	8d\	e-	8ff#\	e-	8a/	8f#\
8D/J	.	[8dd\J	.	8ff#\J	.	16d\	-jus	16ff#\	-jus	8dd/J	8f#\J
.	.	.	.	.	.	16D/	in	16ff#\	in	.	.
!	!	!	!	!	!	!	!	!	!	!	!LO:LB:g=original
=58	=58	=58	=58	=58	=58	=58	=58	=58	=58	=58	=58
!LO:TX:a:t=P:mixed beam:problem	!	!	!	!	!	!	!	!	!	!	!
8A\L	.	8dd\L]	.	4.eeT\	.	4.A\	Sae-	4.ee\	sae-	4.a/	4.e\
8G\	.	16cc#\L	.	.	.	.	.	.	.	.	.
.	.	16b\JJ	.	.	.	.	.	.	.	.	.
8A\	4	4cc#\	.	.	.	.	.	.	.	.	.
8AA/J	3	.	.	8ee\	.	8AA/	-cu-	8ee\	-cu-	8a/	8e\
!	!	!	!	!	!	!	!	!	!	!LO:LB:g=original	!
=59	=59	=59	=59	=59	=59	=59	=59	=59	=59	=59	=59
8D\L	.	4dd\	.	4dd\	.	4D/	-la	4dd\	-la	4f#/	4d\
8D\	.	.	.	.	.	.	.	.	.	.	.
8E\	.	4r	.	4r	.	4r	.	4r	.	4r	4r
8F#\J	.	.	.	.	.	.	.	.	.	.	.
!	!	!	!	!	!	!	!	!LO:LB:g=original	!	!	!
=60	=60	=60	=60	=60	=60	=60	=60	=60	=60	=60	=60
!	!	!	!	!	!	!LO:N:vis=00	!	!	!	!LO:N:vis=00	!LO:N:vis=00
8G\L	.	8g/L	.	8g/L	.	0r	.	4b\	Glo-	0r	0r
8A\	.	8a/	.	8a/	.	.	.	.	.	.	.
8B\	.	8b/	.	8b/	.	.	.	8b\	-ri-	.	.
8G\J	.	8g/J	.	8g/J	.	.	.	8b\	-a	.	.
=61	=61	=61	=61	=61	=61	=61	=61	=61	=61	=61	=61
8F#\L	6	8f#/L	.	8f#/L	.	.	.	4a\	Pa-	.	.
8E\	.	8e/	.	8e/	.	.	.	.	.	.	.
8F#\	.	8f#/	.	8f#/	.	.	.	4a\	-tri	.	.
8D\J	.	8d/J	.	8d/J	.	.	.	.	.	.	.
=62	=62	=62	=62	=62	=62	=62	=62	=62	=62	=62	=62
!LO:TX:a:t=P:mixed beam:problem	!	!	!	!	!	!	!	!	!	!	!
8G\L	.	8g/L	.	8g/L	.	.	.	4b\	Glo-	.	.
8G\	.	8g/	.	8g/	.	.	.	.	.	.	.
8Cn/	8 6	8a/	.	8a/	.	.	.	8ccn\	-ri-	.	.
8C/J	7 5	8g/J	.	8g/J	.	.	.	8b\	-a	.	.
=63	=63	=63	=63	=63	=63	=63	=63	=63	=63	=63	=63
8D\L	.	8f#/L	.	8f#/L	.	.	.	8.a\	Fi-	.	.
8E\	.	8e/	.	8e/	.	.	.	.	.	.	.
.	.	.	.	.	.	.	.	16a\	-li-	.	.
8F#\	6	8f#/	.	8f#/	.	.	.	4a\	-o	.	.
8D\J	.	8d/J	.	8d/J	.	.	.	.	.	.	.
!LO:LB:g=original	!	!	!	!	!	!	!	!	!	!	!
=64	=64	=64	=64	=64	=64	=64	=64	=64	=64	=64	=64
!	!	!	!	!	!	!LO:N:vis=00	!	!	!	!LO:N:vis=00	!LO:N:vis=00
8E\L	.	8e/L	.	8e/L	.	0r	.	4.ccn\	et	0r	0r
8D\	.	8d/	.	8d/	.	.	.	.	.	.	.
8E\	.	8e/	.	8e/	.	.	.	.	.	.	.
8F#\J	.	8f#/J	.	8f#/J	.	.	.	8cc\	Spi-	.	.
!	!	!LO:LB:g=original	!	!	!	!	!	!	!	!	!
=65	=65	=65	=65	=65	=65	=65	=65	=65	=65	=65	=65
!LO:TX:a:t=P:mixed beam:problem	!	!	!	!	!	!	!	!	!	!	!
8G\L	.	8g/L	.	8g/L	.	.	.	4b\	-ri-	.	.
8GG/	.	8g/	.	8g/	.	.	.	.	.	.	.
8BB/	6	8B/	.	8B/	.	.	.	8b\	-tu-	.	.
8GG/J	.	8g/J	.	8g/J	.	.	.	8b\	-i	.	.
=66	=66	=66	=66	=66	=66	=66	=66	=66	=66	=66	=66
*	*	*	*	*	*	*	*	*2\right	*	*	*
!LO:TX:a:t=P:mixed beam:problem	!	!	!	!	!	!	!	!	!	!	!
8D/L	.	8d/L	.	8d/L	.	.	.	2a\	San-	.	.
8Cn/	4	8cn/	.	8cn/	.	.	.	.	.	.	.
8D/	#	8d/	.	8d/	.	.	.	.	.	.	.
8DD/J	.	8d/J	.	8d/J	.	.	.	.	.	.	.
=67	=67	=67	=67	=67	=67	=67	=67	=67	=67	=67	=67
8GG/	.	8g/	.	8g/	.	.	.	4g\	-cto	.	.
4G\	.	4d/	.	4b\	.	.	.	.	.	.	.
.	.	.	.	.	.	.	.	4r	.	.	.
8E\	6\	8g/	.	8cc#X\	.	.	.	.	.	.	.
=68	=68	=68	=68	=68	=68	=68	=68	=68	=68	=68	=68
8D\L	.	16f#/LL	.	16dd\LL	.	8D/	Si-	8ff#\	Si-	8dd/L	8f#\L
.	.	16f#/	.	16dd\	.	.	.	.	.	.	.
8d\	.	16dd/	.	16ff#\	.	8d\	-cut	8ff#\	-cut	8dd/	8f#\
.	.	16dd/JJ	.	16ff#\JJ	.	.	.	.	.	.	.
!	!	!	!	!LO:LB:g=original	!	!	!	!	!	!	!
8d\	.	16ff#\LL	.	16aa\LL	.	8d\	e-	8ff#\	e-	8dd/	8f#\
.	.	16ff#\	.	16aa\	.	.	.	.	.	.	.
8d\J	.	16aa\	.	16ddd\	.	8d\	-rat	8ff#\	-rat	8a/J	8f#\J
.	.	16ff#\JJ	.	16ddd\JJ	.	.	.	.	.	.	.
=69	=69	=69	=69	=69	=69	=69	=69	=69	=69	=69	=69
8A\L	.	16cc#\LL	.	16ee\LL	.	8A\	in	8ee\	in	8a/L	8e\L
.	.	16ee\	.	16ccc#\	.	.	.	.	.	.	.
8A\	.	16ee\	.	16ccc#\	.	8A\	prin-	8ee\	prin-	8a/	8e\
.	.	16ee\JJ	.	16ccc#\JJ	.	.	.	.	.	.	.
8A\	.	16cc#\LL	.	16ee\LL	.	8A\	-ci-	8ee\	-ci-	8a/	8e\
.	.	16ee\	.	16ccc#\	.	.	.	.	.	.	.
8A\J	.	16ee\	.	16ccc#\	.	8A\	-pi-	8ee\	-pi-	8a/J	8e\J
.	.	16ee\JJ	.	16ccc#\JJ	.	.	.	.	.	.	.
!	!	!	!	!	!	!LO:LB:g=original	!	!	!	!	!
=70	=70	=70	=70	=70	=70	=70	=70	=70	=70	=70	=70
8F#\L	6	16a\LL	.	16ff#\LL	.	8F#\	-o	8dd\	-o	8dd/L	8f#\L
.	.	16a\	.	16ff#\	.	.	.	.	.	.	.
!	!	!	!	!	!	!	!	!LO:LB:g=original	!	!	!
8E\	.	16ff#\	.	16aa\	.	8E\	et	8dd\	et	8a/	8d\
.	.	16ff#\JJ	.	16aa\JJ	.	.	.	.	.	.	.
8F#\	.	16aa\LL	.	16ddd\LL	.	8F#\	nunc	8dd\	nunc	8f#/	8d\
.	.	16aa\	.	16ddd\	.	.	.	.	.	.	.
8D\J	.	16ff#\	.	16bb\	.	8D\	et	8dd\	et	8f#/J	8d\J
.	.	16dd\JJ	.	16bb\JJ	.	.	.	.	.	.	.
=71	=71	=71	=71	=71	=71	=71	=71	=71	=71	=71	=71
8A\L	6 4	8dd\L	.	8ff#\L	.	8A\	Sem-	8dd\	Sem-	8a/L	8A\L
8A\	-_ 3_	8cc#\	.	8ee\	.	8A\	-per	8cc#\	-per	8a/	8A\
8A\	.	8ee\	.	8ee\	.	8A\	et	8ee\	et	8a/	8e\
8A\J	x	8ee\J	.	8ccc#\J	.	8A\	in	8ee\	in	8a/J	8e\J
=72	=72	=72	=72	=72	=72	=72	=72	=72	=72	=72	=72
8d\L	.	16ff#\LL	.	16ddd\LL	.	8d\	Sae-	8ff#\	Sae-	8a/L	8f#\L
.	.	16ff#\	.	16ddd\	.	.	.	.	.	.	.
8A\	.	16ee\	.	16ccc#\	.	16A\	-cu-	16ee\	-cu-	8a/	8e\
.	.	16ee\JJ	.	16ccc#\JJ	.	16A\	-la	16ee\	-la	.	.
8F#\	.	16ff#\LL	.	16ddd\LL	.	8D\	Sae-	8ff#\	Sae-	8dd/	8f#\
.	.	16ff#\	.	16ddd\	.	.	.	.	.	.	.
8A\J	.	16ee\	.	16ccc#\	.	8A\	-cu-	8ee\	-cu-	8a/J	8e\J
.	.	16ee\JJ	.	16ccc#\JJ	.	.	.	.	.	.	.
=73	=73	=73	=73	=73	=73	=73	=73	=73	=73	=73	=73
!	!	!	!	!	!	!	!	!	!	!LO:TX:a:t=P:mixed beam:problem	!
8d\L	.	8ff#\L	.	8ddd\L	.	8D\	-lo-	8ff#\	-lo-	8dd\L	8f#\L
8F#\	x 6	8dd\J	.	8ff#\J	.	8F#\	-r(um)	8dd\	-rum	8dd\	8d\
8G\	5 -	8ee\L	.	8ee\L	.	(8G\L	A-	(8dd\L	A-	8.a/	8.e\
8A\J	.	16dd\L	.	(16dd\L	.	8A\J)	.	8cc#\J)	.	.	.
.	.	16cc#\JJ	.	16cc#\JJ)	.	.	.	.	.	16a/Jk	16e\Jk
!	!	!LO:LB:g=original	!	!	!	!	!	!	!	!	!
=74	=74	=74	=74	=74	=74	=74	=74	=74	=74	=74	=74
4D\	.	4dd\	.	4dd\	.	4D\	-men	4dd\	-men	4f#/	4d\
4A\	.	4cc#\	.	4ee\	.	4A\	A-	4ee\	A-	4a/	4e\
=75	=75	=75	=75	=75	=75	=75	=75	=75	=75	=75	=75
4D\	.	4dd\	.	4ff#\	.	4D\	-men	4ff#\	-men	4f#/	4d\
4r	.	4r	.	4r	.	4r	.	4r	.	4r	4r
!LO:TX:i:b:t=Na większą Boga Chwałę	!	!	!	!	!	!	!	!	!	!	!
==	==	==	==	==	==	==	==	==	==	==	==
*-	*-	*-	*-	*-	*-	*-	*-	*-	*-	*-	*-
!!!system-decoration: [(s1,s2)][(s3,s4)][(s5,s6)]s7
!!!RDF**kern: > = above
!!!RDF**kern: < = below
!!!RDF**dynam: p = piano
!!!RDF**dynam: f = forte
!!!ENC: Berenika Jozajtis
!!!END: 2020-05-23
!!!EED: Leszek Kubiak
!!!EST: 2020-11-05
